X: 04009
T: BERGER'S MARCH
C: Bob McQuillen 28 July 79
B: Bob's Note Book 04 #9
%R: march
Z: 2020 John Chambers <jc:trillian.mit.edu>
M: C
L: 1/4
K: Em
GA \
| Bde>d | BGE>D | EGG>A | Bdef | g>fed | edB>A | Beed | e2ef |
| g>ag>f | edB>d | edBG/A/ | BE E/F/G/A/ | Bee>g | edBG/A/ | Bee>d | e2 :|
|: ef \
| g>ag>f | edG>A | BEED | E2GA | BEG>A | Be2d | Beed | e2b>a |
| g>fed | BGAB/A/ | GEEB, | D3G/A/ | BedB | AGED | B,EE>D | E2 :|
%%begintext align
%% Berger, Rockwood, and McLenon.
%% The 3 Musketeers in our school --
%% always together, and still together
%% in this book. Here is your tune,
%% David, with love from Mac.
%%endtext

%%sep 1 1 500

%%sep 1 1 500

